X: 31033
T: Paddy Carey
R: slide
M: 12/8
K: Dmajor
|:A|d2 d dcd B2 d A3|ABc def g2 e c2 A|
d2 d dcd B2 d A3|ABc def g2 c d2:|
|:A|d2 e f2 f fgf fed|c2 d e2 e e^de ecA|
d2 e f2 f fgf fed|e2 c ABc d3- d2:|

